app/dist/common/images/pdf-solutions.svg

<svg height="18" viewBox="0 0 18 18" width="18" xmlns="http://www.w3.org/2000/svg"><path d="m0 0h18v18h-18z" fill="#f0f3fa"/><path d="m12 6.5h4l-.21 1h-2.79v1h2.37l-.21 1h-2.16v2h-1zm-8 0h-1v5h1v-4h.9c.5 0 .9.25.9.7 0 .44-.4.8-.9.8h-.23l-.34.9h.57c1.05 0 1.9-.77 1.9-1.7 0-.94-.85-1.7-1.9-1.7zm3.5 0h1.8c1.1 0 2 .8 2 1.79v1.41c0 .99-.9 1.79-2 1.79h-1.8v-3.74l1 .3v2.45h.8c.55 0 1-.3 1-.79v-1.41c0-.5-.45-.79-1-.79h-1.8v-1z" fill="#316db5"/></svg>

<!-- by TradingView --><svg xmlns="http://www.w3.org/2000/svg" width="18" height="18" viewBox="0 0 18 18"><path fill="#F0F3FA" d="M0 0h18v18H0z"/><path d="M12 6.5h4l-.21 1H13v1h2.37l-.21 1H13v2h-1v-5ZM4 6.5H3v5h1v-4h.9c.5 0 .9.25.9.7 0 .44-.4.8-.9.8h-.23l-.34.9h.57c1.05 0 1.9-.77 1.9-1.7 0-.94-.85-1.7-1.9-1.7H4ZM7.5 6.5h1.8c1.1 0 2 .8 2 1.79V9.7c0 .99-.9 1.79-2 1.79H7.5V7.75l1 .3v2.45h.8c.55 0 1-.3 1-.79V8.3c0-.5-.45-.79-1-.79H7.5v-1Z" fill="#316DB5"/></svg>
